!!!SOCIAL_FUNCTION:	songs of the drum-presentation ceremony
!!!REG: Great Lakes
!!!PDT:	1913
!!!OTL: No_78_Seventh_Song_of_the_Dog_Feast.krn
**kern	**kern
*staff2	*staff1
=1-	=1-
*clefF4	*clefF4
*k[]	*k[]
*M5/4	*M5/4
12GG^/	16c\LK
.	8.c\J
12r	.
12GG/	.
12GG^/	4c\
12r	.
12GG/	.
12GG^/	16c\LK
.	8.A\J
12r	.
12GG/	.
12GG^/	16A\LK
.	8.G\J
12r	.
12GG/	.
12GG^/	4E\
12r	.
12GG/	.
=2	=2
1r	16c\LK
.	8.c\J
.	4c\
.	16c\LK
.	8.A\J
.	16A\LK
.	8.G\J
4r	4E\
=3!|:	=3!|:
1r	16A\LK
.	8.A\
.	8A\
.	16.G\L
.	32A\K
.	16G\J
.	8.E\J
.	16E\LK
.	8.D\J
4r	4C/
=4||	=4||
*M2/4	*M2/4
2r	16E\LK
.	8.E\J
.	16E\LL
.	16D\
.	16D\
.	16E\JJ
=5	=5
2r	16D/LK
.	8C/
.	16C/Jk
.	8C/L
.	8AA/J
=6	=6
2r	16C/LK
.	8.C/J
.	16C/LK
.	8.C/J
=7	=7
2r	16E\LL
.	16E\J
.	8C\J
.	8.C/L
.	16C/Jk
=8	=8
2r	[2C/
=9	=9
2r	2C/]
==:|!	==:|!
*-	*-
